;FLAVOR:Marlin
;TIME:6204
;Filament used: 2.3478m
;Layer height: 0.12
;MINX:126.847
;MINY:127.96
;MINZ:0.144
;MAXX:173.153
;MAXY:172.65
;MAXZ:18.974
;Generated with Cura_SteamEngine main
M140 S60
M105
M190 S60
M104 S210
M105
M109 S210
M82 ;absolute extrusion mode
; Ender 3 Max Custom Start G-code
G92 E0 ; Reset Extruder
G28 ; Home all axes
G1 Z2.0 F3000 ; Move Z Axis up little to prevent scratching of Heat Bed
G1 X0.1 Y20 Z0.3 F5000.0 ; Move to start position
G1 X0.1 Y200.0 Z0.3 F1500.0 E15 ; Draw the first line
G1 X0.4 Y200.0 Z0.3 F5000.0 ; Move to side a little
G1 X0.4 Y20 Z0.3 F1500.0 E30 ; Draw the second line
G92 E0 ; Reset Extruder
G1 Z2.0 F3000 ; Move Z Axis up little to prevent scratching of Heat Bed
G1 X5 Y20 Z0.3 F5000.0 ; Move over to prevent blob squish
G92 E0
G92 E0
G1 F1500 E-6.5
;LAYER_COUNT:150
;LAYER:-7
M107
G0 F9000 X128.888 Y137.664 Z0.144
;TYPE:SUPPORT-INTERFACE
G1 F1500 E0
G1 F1125 X128.71 Y137.907 E0.01443
G1 X128.552 Y138.154 E0.02847
G1 X128.42 Y138.394 E0.04159
G1 X128.289 Y138.67 E0.05622
G1 X128.184 Y138.931 E0.0697
G1 X128.091 Y139.216 E0.08405
G1 X128.021 Y139.491 E0.09764
G1 X127.966 Y139.775 E0.1115
G1 X127.929 Y140.07 E0.12574
G1 X127.9 Y140.575 E0.14997
G1 X127.9 Y159.483 E1.05556
G1 X127.96 Y160.143 E1.0873
G1 X128.019 Y160.49 E1.10416
G1 X128.078 Y160.738 E1.11636
G1 X128.168 Y161.028 E1.13091
G1 X128.269 Y161.283 E1.14404
G1 X128.399 Y161.563 E1.15883
G1 X128.524 Y161.797 E1.17154
G1 X128.688 Y162.058 E1.1863
G1 X128.856 Y162.291 E1.20006
G1 X129.037 Y162.513 E1.21378
G1 X129.237 Y162.729 E1.22787
G1 X129.451 Y162.931 E1.24197
G1 X129.664 Y163.11 E1.25529
G1 X129.91 Y163.29 E1.26989
G1 X130.153 Y163.446 E1.28372
G1 X130.395 Y163.581 E1.297
G1 X130.674 Y163.714 E1.3118
G1 X130.943 Y163.821 E1.32566
G1 X131.203 Y163.903 E1.33872
G1 X131.495 Y163.979 E1.35317
G1 X131.774 Y164.034 E1.36679
G1 X132.069 Y164.071 E1.38103
G1 X132.575 Y164.1 E1.40531
G1 X137.104 Y164.101 E1.62222
G1 X138.066 Y164.192 E1.6685
G1 X138.749 Y164.369 E1.70229
G1 X139.388 Y164.623 E1.73523
G1 X139.984 Y164.956 E1.76793
G1 X140.515 Y165.345 E1.79945
G1 X141.024 Y165.825 E1.83296
G1 X141.435 Y166.327 E1.86403
G1 X141.815 Y166.927 E1.89805
G1 X142.09 Y167.522 E1.92944
G1 X142.402 Y168.506 E1.97888
G1 X142.505 Y168.77 E1.99246
G1 X142.634 Y169.049 E2.00718
G1 X142.759 Y169.283 E2.01988
G1 X142.924 Y169.544 E2.03467
G1 X143.091 Y169.777 E2.0484
G1 X143.272 Y169.999 E2.06212
G1 X143.472 Y170.215 E2.07622
G1 X143.686 Y170.417 E2.09032
G1 X143.899 Y170.596 E2.10364
G1 X144.145 Y170.776 E2.11824
G1 X144.388 Y170.932 E2.13207
G1 X144.63 Y171.067 E2.14534
G1 X144.909 Y171.2 E2.16015
G1 X145.178 Y171.307 E2.17401
G1 X145.438 Y171.389 E2.18707
G1 X145.73 Y171.465 E2.20152
G1 X146.009 Y171.52 E2.21514
G1 X146.304 Y171.557 E2.22938
G1 X146.81 Y171.586 E2.25365
G1 X159.296 Y171.585 E2.85166
G1 X159.956 Y171.525 E2.88341
G1 X160.418 Y171.448 E2.90584
G1 X160.838 Y171.319 E2.92688
G1 X161.099 Y171.216 E2.94032
G1 X161.377 Y171.088 E2.95498
G1 X161.615 Y170.959 E2.96794
G1 X161.876 Y170.797 E2.98266
G1 X162.108 Y170.63 E2.99635
G1 X162.33 Y170.449 E3.01007
G1 X162.546 Y170.249 E3.02417
G1 X162.753 Y170.03 E3.0386
G1 X162.926 Y169.823 E3.05152
G1 X163.105 Y169.578 E3.06605
G1 X163.262 Y169.332 E3.08003
G1 X163.396 Y169.09 E3.09328
G1 X163.526 Y168.816 E3.1078
G1 X163.631 Y168.555 E3.12128
G1 X163.721 Y168.279 E3.13518
G1 X163.798 Y167.989 E3.14955
G1 X164.036 Y167.286 E3.1851
G1 X164.323 Y166.7 E3.21635
G1 X164.684 Y166.145 E3.24806
G1 X165.139 Y165.609 E3.28173
G1 X165.645 Y165.15 E3.31445
G1 X166.211 Y164.756 E3.34748
G1 X166.829 Y164.431 E3.38093
G1 X167.473 Y164.194 E3.41379
G1 X168.134 Y164.04 E3.4463
G1 X168.6 Y163.963 E3.46892
G1 X169.023 Y163.833 E3.49011
G1 X169.284 Y163.73 E3.50355
G1 X169.562 Y163.602 E3.51821
G1 X169.8 Y163.473 E3.53118
G1 X170.061 Y163.311 E3.54589
G1 X170.293 Y163.144 E3.55958
G1 X170.515 Y162.963 E3.5733
G1 X170.731 Y162.763 E3.5874
G1 X170.938 Y162.544 E3.60183
G1 X171.111 Y162.337 E3.61475
G1 X171.29 Y162.093 E3.62925
G1 X171.447 Y161.846 E3.64326
G1 X171.58 Y161.606 E3.6564
G1 X171.711 Y161.33 E3.67104
G1 X171.816 Y161.069 E3.68451
G1 X171.909 Y160.784 E3.69887
G1 X171.979 Y160.509 E3.71246
G1 X172.034 Y160.225 E3.72631
G1 X172.071 Y159.93 E3.74055
G1 X172.1 Y159.425 E3.76478
G1 X172.1 Y140.737 E4.65984
G1 X172.1 Y140.517 E4.67037
G1 X172.04 Y139.857 E4.70211
G1 X171.981 Y139.51 E4.71897
G1 X171.922 Y139.262 E4.73118
G1 X171.832 Y138.972 E4.74572
G1 X171.731 Y138.717 E4.75886
G1 X171.601 Y138.437 E4.77364
G1 X171.476 Y138.203 E4.78635
G1 X171.312 Y137.942 E4.80111
G1 X171.144 Y137.709 E4.81487
G1 X170.961 Y137.485 E4.82873
G1 X170.763 Y137.271 E4.84269
G1 X170.547 Y137.067 E4.85692
G1 X170.336 Y136.89 E4.87011
G1 X170.09 Y136.71 E4.88471
G1 X169.847 Y136.554 E4.89854
G1 X169.605 Y136.419 E4.91181
G1 X169.326 Y136.286 E4.92661
G1 X169.057 Y136.179 E4.94048
G1 X168.797 Y136.097 E4.95354
G1 X168.506 Y136.02 E4.96795
G1 X167.998 Y135.927 E4.99269
G1 X167.312 Y135.745 E5.02668
G1 X166.701 Y135.502 E5.05817
G1 X166.105 Y135.171 E5.09083
G1 X165.545 Y134.761 E5.12407
G1 X165.039 Y134.278 E5.15757
G1 X164.627 Y133.771 E5.18886
G1 X164.263 Y133.191 E5.22166
G1 X163.987 Y132.594 E5.25316
G1 X163.773 Y131.92 E5.28703
G1 X163.738 Y131.778 E5.29403
G1 X163.647 Y131.486 E5.30868
G1 X163.546 Y131.231 E5.32182
G1 X163.416 Y130.951 E5.3366
G1 X163.291 Y130.717 E5.34931
G1 X163.127 Y130.456 E5.36407
G1 X162.959 Y130.223 E5.37783
G1 X162.776 Y129.999 E5.39168
G1 X162.578 Y129.785 E5.40564
G1 X162.362 Y129.581 E5.41987
G1 X162.151 Y129.404 E5.43307
G1 X161.905 Y129.224 E5.44766
G1 X161.662 Y129.068 E5.46149
G1 X161.42 Y128.933 E5.47477
G1 X161.141 Y128.8 E5.48957
G1 X160.872 Y128.693 E5.50344
G1 X160.612 Y128.611 E5.51649
G1 X160.32 Y128.535 E5.53094
G1 X160.041 Y128.48 E5.54456
G1 X159.746 Y128.443 E5.5588
G1 X159.24 Y128.414 E5.58308
G1 X146.754 Y128.414 E6.18109
G1 X146.094 Y128.474 E6.21283
G1 X145.63 Y128.553 E6.23537
G1 X145.212 Y128.681 E6.25631
G1 X144.951 Y128.784 E6.26975
G1 X144.673 Y128.912 E6.28441
G1 X144.435 Y129.041 E6.29737
G1 X144.174 Y129.203 E6.31209
G1 X143.942 Y129.37 E6.32578
G1 X143.72 Y129.551 E6.3395
G1 X143.504 Y129.751 E6.35359
G1 X143.302 Y129.965 E6.36769
G1 X143.123 Y130.178 E6.38101
G1 X142.945 Y130.422 E6.39548
G1 X142.787 Y130.668 E6.40948
G1 X142.655 Y130.908 E6.4226
G1 X142.521 Y131.191 E6.4376
G1 X142.423 Y131.435 E6.45019
G1 X142.327 Y131.727 E6.46491
G1 X142.285 Y131.885 E6.47274
G1 X141.982 Y132.731 E6.51578
G1 X141.632 Y133.382 E6.55118
G1 X141.231 Y133.938 E6.58402
G1 X140.787 Y134.415 E6.61523
G1 X140.248 Y134.865 E6.64886
G1 X139.668 Y135.232 E6.68173
G1 X139.059 Y135.519 E6.71397
G1 X138.438 Y135.724 E6.74529
G1 X137.749 Y135.857 E6.7789
G1 X137.093 Y135.9 E6.81039
G1 X132.519 Y135.9 E7.02946
G1 X131.859 Y135.96 E7.0612
G1 X131.395 Y136.039 E7.08374
G1 X130.977 Y136.167 E7.10468
G1 X130.716 Y136.27 E7.11812
G1 X130.438 Y136.398 E7.13278
G1 X130.2 Y136.527 E7.14574
G1 X129.939 Y136.689 E7.16046
G1 X129.707 Y136.856 E7.17415
G1 X129.485 Y137.037 E7.18787
G1 X129.269 Y137.237 E7.20196
G1 X129.067 Y137.451 E7.21606
G1 X128.888 Y137.664 E7.22938
G0 F9000 X129.056 Y138.107
G1 F1125 X161.504 Y170.555 E9.42719
G0 F9000 X162.686 Y169.474
G1 F1125 X130.205 Y136.994 E11.6272
G0 F9000 X131.842 Y136.368
G1 F1125 X163.401 Y167.926 E13.76476
G0 F9000 X164.079 Y166.342
G1 F1125 X134.036 Y136.299 E15.79966
G0 F9000 X136.299 Y136.299
G1 F1125 X165.101 Y165.101 E17.75052
G0 F9000 X166.444 Y164.181
G1 F1125 X138.402 Y136.139 E19.64989
G0 F9000 X140.012 Y135.487
G1 F1125 X168.155 Y163.63 E21.5561
G0 F9000 X169.793 Y163.005
G1 F1125 X141.268 Y134.48 E23.48819
G0 F9000 X142.208 Y133.157
G1 F1125 X170.942 Y161.891 E25.43444
G0 F9000 X171.611 Y160.298
G1 F1125 X142.82 Y131.506 E27.38458
G0 F9000 X143.7 Y130.123
G1 F1125 X171.698 Y158.122 E29.28101
G0 F9000 X171.698 Y155.859
G1 F1125 X145.028 Y129.189 E31.08745
G0 F9000 X146.916 Y128.814
G1 F1125 X171.698 Y153.597 E32.76605
G0 F9000 X171.698 Y151.334
G1 F1125 X149.179 Y128.814 E34.29137
G0 F9000 X151.441 Y128.814
G1 F1125 X171.698 Y149.071 E35.66344
G0 F9000 X171.698 Y146.808
G1 F1125 X153.704 Y128.814 E36.88223
G0 F9000 X155.967 Y128.814
G1 F1125 X171.698 Y144.546 E37.94777
G0 F9000 X171.698 Y142.283
G1 F1125 X158.229 Y128.814 E38.86007
G0 F9000 X160.756 Y129.078
G1 F1125 X163.256 Y131.578 E39.0294
G1 F1500 E32.5294
G0 F9000 X164.802 Y131.649
G0 X168.204 Y134.88
G0 X168.015 Y136.337
G1 F1500 E39.0294
G1 F1125 X171.648 Y139.969 E39.27544
G1 F1500 E32.77544
G0 F9000 X173.153 Y140.345
G0 X173.132 Y160.029
G0 X172.927 Y161.096
G0 X172.528 Y162.093
G0 X171.949 Y162.994
G0 X171.215 Y163.766
G0 X162.756 Y171.476
G0 X161.854 Y172.04
G0 X161.031 Y172.358
G0 X160.096 Y172.582
G0 X159.82 Y171.133
G1 F1500 E39.27544
G1 F1125 X128.387 Y139.7 E41.4045
G0 F9000 X128.3 Y141.876
G1 F1125 X157.607 Y171.184 E43.38959
G0 F9000 X155.344 Y171.184
G1 F1125 X128.3 Y144.139 E45.2214
G0 F9000 X128.3 Y146.402
G1 F1125 X153.082 Y171.184 E46.89997
G0 F9000 X150.819 Y171.184
G1 F1125 X128.3 Y148.664 E48.42528
G0 F9000 X128.3 Y150.927
G1 F1125 X148.556 Y171.184 E49.79732
G0 F9000 X146.255 Y171.146
G1 F1125 X142.443 Y167.333 E50.05555
G1 F1500 E43.55555
G0 F9000 X140.879 Y167.44
G0 X138.92 Y165.583
G0 X139.242 Y164.132
G1 F1500 E50.05555
G1 F1125 X128.3 Y153.19 E50.79669
G0 F9000 X128.3 Y155.453
G1 F1125 X136.548 Y163.701 E51.35535
G0 F9000 X134.283 Y163.699
G1 F1125 X128.3 Y157.715 E51.76063
G0 F9000 X128.351 Y160.029
G1 F1125 X131.977 Y163.655 E52.00623
G1 F1500 E45.50623
G0 F300 X131.977 Y163.655 Z0.324
G0 F9000 X131.607 Y165.087
G0 X130.568 Y164.817
G0 X129.608 Y164.362
G0 X128.743 Y163.728
G0 X128.01 Y162.941
G0 X127.446 Y162.039
G0 X127.052 Y161.022
G0 X126.847 Y159.655
G0 X126.868 Y139.971
G0 X127.033 Y139.107
G0 X127.31 Y138.25
G0 X128.857 Y138.428
;TIME_ELAPSED:74.168717
;LAYER:-6
;TYPE:SUPPORT
G1 F1500 E52.00623
G1 F1125 X130.431 Y136.854 E52.1395
G1 X130.173 Y137.012 E52.15761
G1 X129.949 Y137.172 E52.17409
G1 X129.749 Y137.337 E52.18962
G1 X129.558 Y137.512 E52.20512
G1 X129.267 Y137.822 E52.23058
G1 X128.971 Y138.223 E52.26042
G1 X128.771 Y138.584 E52.28513
G1 X128.658 Y138.822 E52.3009
G1 X128.511 Y139.19 E52.32462
G1 X128.41 Y139.574 E52.34839
G1 X128.359 Y139.841 E52.36467
G1 X128.325 Y140.12 E52.38149
G1 X128.31 Y140.389 E52.39762
G1 X132.4 Y136.299 E52.74391
G1 X133.815 Y136.299 E52.82862
G1 X128.3 Y141.814 E53.29556
G1 X128.3 Y143.228 E53.38021
G1 X135.229 Y136.299 E53.96687
G1 X136.644 Y136.299 E54.05158
G1 X128.3 Y144.642 E54.758
G1 X128.3 Y146.057 E54.84271
G1 X138.175 Y136.182 E55.67879
G1 X138.517 Y136.116 E55.69964
G1 X139.214 Y135.888 E55.74355
G1 X139.877 Y135.574 E55.78747
G1 X140.495 Y135.179 E55.83138
G1 X141.058 Y134.708 E55.87532
G1 X141.555 Y134.172 E55.91908
G1 X141.985 Y133.573 E55.96323
G1 X142.337 Y132.919 E56.00769
G1 X142.666 Y132.004 E56.06591
G1 X142.711 Y131.835 E56.07638
G1 X142.798 Y131.569 E56.09313
G1 F1500 E49.59313
G0 F9000 X141.545 Y130.764
G0 X142.065 Y129.82
G0 X142.755 Y128.994
G0 X143.423 Y128.446
G0 X144.196 Y127.96
G0 X145.091 Y129.158
G1 F1500 E56.09313
G1 F1125 X144.855 Y129.266 E56.10867
G1 X144.625 Y129.391 E56.12434
G1 X144.407 Y129.527 E56.13972
G1 X144.184 Y129.686 E56.15612
G1 X143.983 Y129.852 E56.17173
G1 X143.792 Y130.027 E56.18724
G1 X143.502 Y130.337 E56.21265
G1 X143.206 Y130.736 E56.24239
G1 X142.938 Y131.218 E56.27541
G1 X142.806 Y131.55 E56.2968
G1 X145.268 Y129.089 E56.50521
G1 X145.723 Y128.94 E56.53387
G1 X146.139 Y128.87 E56.55913
G1 X146.766 Y128.814 E56.59681
G1 X146.957 Y128.814 E56.60825
G1 X128.3 Y147.471 E58.18787
G1 X128.3 Y148.885 E58.27252
G1 X148.371 Y128.814 E59.97186
G1 X149.785 Y128.814 E60.05652
G1 X128.3 Y150.299 E61.87558
G1 X128.3 Y151.714 E61.96029
G1 X151.199 Y128.814 E63.89911
G1 X152.614 Y128.814 E63.98382
G1 X128.3 Y153.128 E66.04241
G1 X128.3 Y154.542 E66.12706
G1 X154.028 Y128.814 E68.30536
G1 X155.442 Y128.814 E68.39001
G1 X128.3 Y155.956 E70.68803
G1 X128.3 Y157.37 E70.77268
G1 X156.856 Y128.814 E73.19042
G1 X158.271 Y128.814 E73.27513
G1 X128.3 Y158.785 E75.81267
G1 X128.299 Y159.467 E75.8535
G1 X128.364 Y160.134 E75.89362
G1 X159.661 Y128.837 E78.54343
G1 X159.972 Y128.873 E78.56217
G1 X160.239 Y128.924 E78.57845
G1 X160.626 Y129.027 E78.60242
G1 X160.813 Y129.1 E78.61444
G1 X128.677 Y161.235 E81.33524
G1 X128.876 Y161.608 E81.36055
G1 X129.09 Y161.947 E81.38455
G1 X129.22 Y162.107 E81.39689
G1 X161.735 Y129.592 E84.14982
G1 X161.991 Y129.78 E84.16884
G1 X162.301 Y130.072 E84.19434
G1 X162.477 Y130.264 E84.20993
G1 X129.918 Y162.824 E86.96663
G1 X130.362 Y163.105 E86.99809
G1 X130.584 Y163.228 E87.01328
G1 X130.816 Y163.339 E87.02868
G1 X163.046 Y131.109 E89.75748
G1 X163.17 Y131.371 E89.77483
G1 X163.268 Y131.622 E89.79096
G1 X163.423 Y132.146 E89.82368
G1 X131.909 Y163.661 E92.4919
G1 X132.579 Y163.699 E92.53208
G1 X133.285 Y163.699 E92.57434
G1 X163.811 Y133.172 E95.15891
G1 X163.908 Y133.382 E95.17276
G1 X164.335 Y134.063 E95.22088
G1 X134.699 Y163.699 E97.73006
G1 X136.113 Y163.699 E97.81471
G1 X165.009 Y134.804 E100.26119
G1 X165.295 Y135.076 E100.28482
G1 X165.789 Y135.437 E100.32145
G1 X137.491 Y163.736 E102.71739
G1 X138.141 Y163.797 E102.75647
G1 X138.699 Y163.942 E102.79099
G1 X166.706 Y135.934 E105.16229
G1 X167.209 Y136.136 E105.19474
G1 X167.773 Y136.282 E105.22962
G1 X139.709 Y164.346 E107.6057
G1 X140.187 Y164.608 E107.63833
G1 X140.577 Y164.893 E107.66725
G1 X168.915 Y136.554 E110.06657
G1 X169.176 Y136.658 E110.08339
G1 X169.414 Y136.771 E110.09916
G1 X169.641 Y136.896 E110.11468
G1 X169.853 Y137.03 E110.12969
G1 X141.323 Y165.56 E112.54523
G1 X141.776 Y166.112 E112.58798
G1 X141.934 Y166.363 E112.60573
G1 X170.607 Y137.69 E115.03338
G1 X170.826 Y137.95 E115.05373
G1 X170.986 Y138.172 E115.07011
G1 X171.199 Y138.513 E115.09418
G1 X142.435 Y167.277 E117.52953
G1 X142.774 Y168.352 E117.59701
G1 X171.581 Y139.545 E120.036
G1 X171.642 Y139.904 E120.0578
G1 X171.699 Y140.531 E120.09549
G1 X171.699 Y140.841 E120.11405
G1 X143.226 Y169.314 E122.52476
G1 X143.568 Y169.731 E122.55705
G1 X143.881 Y170.073 E122.5848
G1 X171.699 Y142.255 E124.94005
G1 X171.699 Y143.669 E125.02471
G1 X144.712 Y170.656 E127.3096
G1 X145.051 Y170.824 E127.33225
G1 X145.429 Y170.974 E127.3566
G1 X145.729 Y171.054 E127.37519
G1 X171.699 Y145.084 E129.57398
G1 X171.699 Y146.498 E129.65863
G1 X147.013 Y171.184 E131.74871
G1 X148.427 Y171.184 E131.83336
G1 X171.699 Y147.912 E133.80372
G1 X171.699 Y149.326 E133.88837
G1 X149.841 Y171.184 E135.73901
G1 X151.255 Y171.184 E135.82367
G1 X171.699 Y150.741 E137.55455
G1 X171.699 Y152.155 E137.6392
G1 X152.67 Y171.184 E139.25032
G1 X154.084 Y171.184 E139.33497
G1 X171.699 Y153.569 E140.82637
G1 X171.699 Y154.983 E140.91103
G1 X155.498 Y171.184 E142.28271
G1 X156.912 Y171.184 E142.36736
G1 X171.699 Y156.397 E143.61932
G1 X171.699 Y157.812 E143.70404
G1 X158.326 Y171.184 E144.83624
G1 X159.282 Y171.184 E144.89347
G1 X159.786 Y171.139 E144.92377
G1 X163.594 Y167.331 E145.24618
G1 X163.408 Y167.886 E145.28122
G1 X163.306 Y168.287 E145.30599
G1 X163.159 Y168.657 E145.32983
G1 X162.985 Y169.022 E145.35404
G1 X162.77 Y169.36 E145.37802
G1 X162.618 Y169.566 E145.39334
G1 X162.452 Y169.764 E145.40881
G1 X162.259 Y169.969 E145.42567
G1 X162.075 Y170.14 E145.44071
G1 X161.865 Y170.312 E145.45696
G1 X161.645 Y170.47 E145.47317
G1 X161.423 Y170.607 E145.48879
G1 X161.193 Y170.732 E145.50446
G1 X160.957 Y170.841 E145.52003
G1 X160.702 Y170.94 E145.5364
G1 X160.325 Y171.058 E145.56005
G1 X159.909 Y171.128 E145.58531
